X:1
T:Worrell, 77.77
T:Worrell, 77.77
T:Edna Randolph Worrell, 1914
T:Public Domain Courtesy of the Cyber Hymnal™
C:Edna Randolph Worrell, 1914
Z:Public Domain
Z:Courtesy of the Cyber Hymnal™
%%score ( 1 2 ) ( 3 4 )
L:1/8
Q:1/4=110
M:4/4
K:G
V:1 treble 
V:2 treble 
V:3 bass 
V:4 bass 
V:1
 [Gd]2 [Ge]2 [Gd]2 [Ac]2 | [GB]2 [FA]2 G4 | [DF]2 [DG]2 [EA]2 [DF]2 | [DG]2 [DA]2 [DB]2 z2 | %4
 [Gd]2 [Ge]2 [Gd]2 [Ac]2 | [GB]2 [FA]2 [EG]4 | [EA]2 [EB]2 [Ec]2 [EA]2 | [CE]2 [CF]2 [B,G]2 z2 |] %8
V:2
 x8 | x4 G4 | x8 | x8 | x8 | x8 | x8 | x8 |] %8
V:3
 B,2 C2 B,2 [F,D]2 | [G,D]2 [B,C]2 [B,D]4 | [D,C]2 [E,C]2 [F,C]2 [D,C]2 | %3
 [E,B,]2 [F,A,]2 [G,B,]2 z2 | B,2 C2 B,2 [F,D]2 | [G,D]2 [^D,C]2 [E,B,]4 | %6
 C2 [B,C]2 [A,C]2 [C,A,]2 | [D,A,]2 [D,A,]2 [G,,G,]2 z2 |] %8
V:4
 G,6 x2 | x8 | x8 | x8 | G,6 x2 | x8 | C2 x6 | x8 |] %8

